X: 602
T: Goin' Up Town
B: jims roots
M:2/4
L:1/8
Q: 1/4=100
K:D
V:1 
%S:Howdy Forrester, learned from Oscar Stone
%N:Transcribed by John Hartford
fg |: "D"a3^g agag | b2a2g2f2 | "G"e3^d efge | B6 ef |
"A"g3f gfgf | a2g2(3fgf ee | [1 "D"d3c dfeg | f4 fg:| [2 "A"c2Ac BAcA | "D"d6 DE ||
|:"D"FABF AcBF | AcBF A2 (D2 | D)FBF AcBF | "A"Ac2d c4 |
A2cA B2cB | A2cA aegf  |gfed cABc |[1 "D"d3e d2 DE:| [2 "D"d3 ed2 ||
% abcbook-tune_id 6298c25ddae2cd3c506ddeab


% abcbook-boost 0
% abcbook-tablature 
% abcbook-transpose 
% abcbook-lastupdated 1654178398277
% abcbook-soundfonts 
% abcbook-repeats 1


